dist/img/skills/software/gulp.svg

<svg width="128" height="128" viewBox="0 0 128 128" fill="none" xmlns="http://www.w3.org/2000/svg">
<g opacity="0.32">
<path d="M88.6172 3.99995C88.4541 4.00626 88.3272 4.05176 88.2422 4.13276L73.3828 21.7812L70.3516 32.2031C68.2916 32.1351 66.1644 32.1093 63.9844 32.1093C48.5404 32.1093 36 33.7454 36 35.7734C36 40.6134 91.9609 40.6134 91.9609 35.7734C91.9609 34.2734 85.2616 33.0062 75.6016 32.4062L78 23.8281L91.8984 7.10933L91.9219 7.08589C92.2339 6.76189 91.6248 5.78945 90.6328 4.93745C89.8888 4.29545 89.1064 3.98101 88.6172 3.99995ZM69.2109 36.3046L69.1563 36.4687C69.1323 36.4887 69.1328 36.515 69.1328 36.539C69.1328 36.839 70.3443 37.0859 71.8203 37.0859C73.2963 37.0859 74.5156 36.839 74.5156 36.539L74.5625 36.3515C74.9505 36.4915 75.1641 36.6519 75.1641 36.8359C75.1641 37.3199 73.6649 37.7153 71.7969 37.6953C69.9809 37.6953 68.4766 37.3277 68.4766 36.8437C68.4766 36.6357 68.7749 36.4446 69.2109 36.3046ZM91.6484 37.6796C84.2444 41.6276 43.7992 41.6543 36.3672 37.7343L39.6563 66.664C41.0842 62.052 44.6958 55.8255 49.3438 53.9375C50.8678 53.3135 52.4152 53.3164 53.8672 54.1484C55.1272 54.8404 56.1925 56.2911 56.3125 56.8671C56.6045 58.3671 55.8306 58.9609 55.2266 58.9609C54.4986 58.9609 53.9421 57.9052 53.5781 57.2812C52.5861 55.5972 51.0844 55.5248 49.4844 56.6328C47.8124 57.7848 46.3598 59.7222 45.3438 61.4062C44.1078 63.4342 43.0655 65.6702 42.4375 67.9062C42.0735 69.1982 41.7409 71.2681 42.2969 72.4921C42.5409 73.0001 42.9004 73.3203 43.4844 73.3203C44.6964 73.3203 46.4567 71.8001 47.3047 70.9921C48.3927 69.9561 49.7961 68.3406 50.3281 67.3046L51.5938 63.7343C52.2218 62.1663 53.9844 62.4423 53.9844 63.7343C53.9844 66.0863 53.0943 66.8703 51.5703 71.7343C50.1663 76.2303 49.7266 77.6875 49.7266 77.6875C49.5586 78.3315 48.9031 79.414 48.2031 79.414C47.9111 79.414 47.6981 79.3168 47.5781 79.1328C47.3341 78.8088 47.3588 77.9195 47.3828 77.6875C47.4308 76.9515 48.9044 72.567 49.1484 71.875C48.6644 72.383 48.1576 72.8944 47.6016 73.3984C46.2936 74.5744 44.1904 76.1171 42.3984 76.1171C41.5744 76.1171 41.0471 75.9065 40.5391 75.5625L42.375 93.914C42.859 95.066 51.8666 97.8593 63.7266 97.8593C75.6106 97.8593 84.6103 95.046 85.0703 93.914L87.7109 72.1093C86.3309 73.3093 84.7368 74.7874 82.9688 75.5234C81.6608 76.0554 78.7578 76.3951 78.7578 74.2031C78.7578 73.0031 80.9622 70.794 82.2422 69.25C82.5822 68.858 83.375 67.8908 83.375 67.3828C83.375 66.7148 81.9269 66.8691 80.5469 67.9531C79.7709 68.5771 79.0415 69.4113 78.4375 70.1953C77.3975 71.5793 76.8428 72.7736 76.3828 73.7656C74.8828 77.0376 75.3917 75.7479 74.1797 78.8359C72.9677 81.9039 73.1659 81.5545 72.9219 82.0625C72.7059 82.5025 72.3891 82.8735 71.9531 83.1015C71.4931 83.3335 70.8646 83.3072 70.4766 83.0312C70.2606 82.8912 70.1563 82.5916 70.1563 82.1796C70.1563 81.9716 70.1864 81.7626 70.2344 81.5546C70.5984 80.1466 72.1232 77.3844 73.8672 73.6484C74.2552 72.7964 74.1067 73.0491 74.0547 73.1171C72.5547 74.5011 71.4143 75.171 70.5703 75.539C69.1663 76.139 67.4225 76.1377 67.0625 74.5937C67.0385 74.5017 67.0396 74.4045 67.0156 74.3125C64.1596 76.4325 61.1357 77.0093 62.1797 72.4453C61.0677 74.3373 59.126 75.8828 56.75 75.8828C55.758 75.8828 55.0319 75.5629 54.6719 74.7109C54.1159 73.4429 54.9853 71.2707 55.7812 69.2187C56.1933 68.1827 56.7558 66.9363 57.5078 65.4843C57.8958 64.7003 58.5198 64.2373 59.3438 64.4453C59.4878 64.4933 59.6144 64.5413 59.7344 64.6093C60.3624 65.0253 60.1207 65.6416 59.8047 66.2656C58.8847 67.9936 58.0867 69.2625 57.5547 71.0625C57.3387 71.8225 57.0661 73.1406 57.9141 73.1406C58.4941 73.1406 59.0499 72.9539 59.5859 72.5859C60.6979 71.8019 61.5934 70.6285 62.2734 69.4765C62.7574 68.6485 63.3408 67.5646 63.6328 66.6406C63.7528 66.2486 63.9023 65.8792 64.0703 65.5312C64.3383 64.9552 64.6961 64.3593 65.3281 64.3593C65.6441 64.3593 65.9056 64.4751 66.1016 64.7031C66.5136 65.2111 66.4231 65.733 66.2031 66.289C65.7191 67.581 65.0673 68.7366 64.5313 70.1406C64.2153 70.9486 63.875 71.9839 63.875 72.8359C63.875 73.6199 64.7714 73.4333 65.5234 73.1093C66.1034 72.8573 66.6839 72.4701 67.1719 72.0781C67.4639 70.9501 67.3865 71.1995 73.5625 56.3515C73.8785 55.5915 74.4591 55.2656 75.0391 55.2656C75.3311 55.2656 75.5685 55.3634 75.8125 55.5234C76.2245 55.8234 76.2305 56.4613 76.0625 56.9453C75.8945 57.3853 75.9128 57.2471 74.9688 59.3671C73.7088 62.1551 72.8894 64.1665 71.7734 66.7265C71.3134 67.7865 69.9119 71.0831 69.6719 71.8671C69.5279 72.3751 69.3541 73.2031 69.9141 73.2031C71.2221 73.2031 74.5878 70.1812 75.5078 69.2812C75.5558 69.2132 75.6306 69.1886 75.7266 69.1406C75.8706 68.7006 76.0128 68.291 76.1328 67.875C76.4728 66.999 76.7899 65.9776 77.4219 65.2656C77.6139 65.0336 77.8303 64.8984 78.0703 64.8984C78.7463 64.8984 79.0859 65.1723 79.0859 65.8203C79.0859 66.0723 78.9203 66.998 78.8203 67.25C79.1603 66.906 79.5183 66.5627 79.9063 66.2187C83.5383 63.0147 86.125 64.6496 86.125 66.2656C86.125 67.9696 83.9731 70.3402 82.7891 71.6562C82.4011 72.0962 81.6021 72.9008 81.5781 73.1328C81.5781 73.4328 81.7934 73.5546 82.1094 73.5546C82.5934 73.5546 83.6589 72.7447 84.0469 72.4687C85.2589 71.5687 86.8985 70.1867 88.0625 69.2187L91.6484 37.6796ZM43.7188 96.125L47.3281 101.984L48.7344 120.289C48.7344 122.341 55.5838 124 64.0078 124C72.4318 124 79.2813 122.341 79.2813 120.289L80.3984 101.797L83.8047 96.125C74.2167 99.977 53.6948 100.113 43.7188 96.125Z" fill="#F8F8FF"/>
</g>
</svg>

<svg width="128" height="128" fill="none" xmlns="http://www.w3.org/2000/svg"><path d="M88.617 4c-.163.006-.29.052-.375.133L73.382 21.78l-3.03 10.422c-2.06-.068-4.188-.094-6.368-.094C48.54 32.11 36 33.745 36 35.773c0 4.84 55.96 4.84 55.96 0 0-1.5-6.698-2.767-16.358-3.367L78 23.828 91.898 7.11l.024-.023c.312-.324-.297-1.297-1.29-2.149-.743-.642-1.526-.956-2.015-.937zM69.211 36.305l-.055.164c-.024.02-.023.046-.023.07 0 .3 1.211.547 2.687.547 1.476 0 2.696-.247 2.696-.547l.046-.188c.389.14.602.3.602.485 0 .484-1.5.88-3.367.86-1.816 0-3.32-.368-3.32-.852 0-.208.298-.4.734-.54zm22.437 1.375c-7.404 3.948-47.849 3.974-55.28.054l3.288 28.93c1.428-4.612 5.04-10.839 9.688-12.727 1.524-.623 3.071-.62 4.523.211 1.26.692 2.326 2.143 2.446 2.72.291 1.5-.482 2.093-1.086 2.093-.728 0-1.285-1.056-1.649-1.68-.992-1.684-2.494-1.756-4.094-.648-1.672 1.152-3.124 3.09-4.14 4.773-1.236 2.028-2.279 4.264-2.907 6.5-.363 1.292-.696 3.362-.14 4.586.244.508.603.828 1.187.828 1.212 0 2.973-1.52 3.82-2.328 1.089-1.036 2.492-2.651 3.024-3.687l1.266-3.57c.628-1.569 2.39-1.293 2.39 0 0 2.351-.89 3.135-2.414 8-1.404 4.495-1.843 5.953-1.843 5.953-.168.644-.824 1.726-1.524 1.726-.292 0-.505-.097-.625-.281-.244-.324-.22-1.213-.195-1.445.048-.737 1.521-5.121 1.765-5.813-.484.508-.99 1.02-1.546 1.523-1.308 1.176-3.412 2.72-5.204 2.72-.824 0-1.35-.212-1.859-.555l1.836 18.351c.484 1.152 9.492 3.945 21.352 3.945 11.884 0 20.883-2.813 21.343-3.945l2.64-21.805c-1.38 1.2-2.973 2.678-4.741 3.414-1.308.532-4.211.872-4.211-1.32 0-1.2 2.204-3.409 3.484-4.953.34-.392 1.133-1.36 1.133-1.867 0-.668-1.448-.514-2.828.57-.776.624-1.505 1.458-2.11 2.242-1.04 1.384-1.594 2.579-2.054 3.57-1.5 3.273-.991 1.983-2.203 5.07-1.212 3.069-1.014 2.72-1.258 3.228-.216.44-.533.81-.969 1.038-.46.233-1.088.206-1.476-.07-.216-.14-.32-.44-.32-.851 0-.208.03-.417.077-.625.364-1.408 1.89-4.17 3.633-7.907.388-.852.24-.599.188-.53-1.5 1.383-2.64 2.053-3.485 2.421-1.404.6-3.147.599-3.507-.945-.025-.092-.023-.19-.047-.281-2.856 2.12-5.88 2.696-4.836-1.868-1.112 1.892-3.054 3.438-5.43 3.438-.992 0-1.718-.32-2.078-1.172-.556-1.268.313-3.44 1.11-5.492a41.772 41.772 0 011.726-3.735c.388-.784 1.012-1.247 1.836-1.039.144.048.27.096.39.164.628.416.387 1.033.07 1.657-.92 1.728-1.717 2.996-2.25 4.796-.215.76-.488 2.079.36 2.079.58 0 1.136-.187 1.672-.555 1.112-.784 2.007-1.957 2.687-3.11.484-.828 1.068-1.911 1.36-2.835.12-.392.27-.762.437-1.11.268-.576.626-1.172 1.258-1.172.316 0 .578.116.774.344.412.508.321 1.03.101 1.586-.484 1.292-1.136 2.448-1.672 3.852-.316.808-.656 1.843-.656 2.695 0 .784.896.597 1.648.273.58-.252 1.16-.639 1.649-1.03.292-1.129.215-.88 6.39-15.727.317-.76.897-1.086 1.477-1.086.292 0 .53.097.773.257.413.3.419.938.25 1.422-.168.44-.15.302-1.093 2.422-1.26 2.788-2.08 4.8-3.196 7.36-.46 1.06-1.861 4.356-2.101 5.14-.144.508-.318 1.336.242 1.336 1.308 0 4.674-3.022 5.594-3.922.048-.068.123-.092.219-.14.144-.44.286-.85.406-1.266.34-.876.657-1.897 1.289-2.61.192-.231.408-.367.648-.367.676 0 1.016.274 1.016.922 0 .252-.166 1.178-.266 1.43.34-.344.698-.687 1.086-1.031 3.632-3.204 6.219-1.57 6.219.047 0 1.704-2.152 4.074-3.336 5.39-.388.44-1.187 1.245-1.21 1.477 0 .3.214.422.53.422.484 0 1.55-.81 1.938-1.086 1.212-.9 2.852-2.282 4.016-3.25l3.585-31.54zm-47.93 58.445l3.61 5.859 1.406 18.305c0 2.052 6.85 3.711 15.274 3.711s15.273-1.659 15.273-3.711l1.117-18.492 3.407-5.672c-9.588 3.852-30.11 3.988-40.086 0z" fill="#F8F8FF" opacity=".32"/></svg>
